cssgg/arrows-shrink-h.svg

<svg
  width="24"
  height="24"
  viewBox="0 0 24 24"
  fill="none"
  xmlns="http://www.w3.org/2000/svg"
>
  <path d="M1 7H3V17H1V7Z" fill="currentColor" />
  <path
    d="M8.44769 7.75732L9.86191 9.17154L8.03344 11H15.9664L14.138 9.17154L15.5522 7.75732L19.7948 12L15.5522 16.2426L14.138 14.8284L15.9664 13H8.03354L9.86194 14.8284L8.44773 16.2426L4.20505 12L8.44769 7.75732Z"
    fill="currentColor"
  />
  <path d="M23 7H21V17H23V7Z" fill="currentColor" />
</svg>

<svg viewBox="0 0 24 24" xmlns="http://www.w3.org/2000/svg"><g><path d="M1 7h2v10H1V7Z"/><path d="M8.44 7.75l1.41 1.41 -1.83 1.82h7.93l-1.83-1.83 1.41-1.42 4.24 4.24 -4.25 4.24 -1.42-1.42 1.82-1.83H7.98l1.82 1.82 -1.42 1.41 -4.25-4.25 4.24-4.25Z"/><path d="M23 7h-2v10h2V7Z"/></g></svg>
